X:172
T: "Die Schaeferstunde"
N: Z0171
O: Europa, Mitteleuropa, Deutschland, Wasgau
R: Erzaehlung, lustige Romanze
M: 3/4
L: 1/16
K: G
D2G2B2 | d4B2d2e2dc | c4B3
cB2B2 | B4A2B2d2BA | A4B2
D2G2B2 | d4B2d2e2dc | c4B3
dc2B2 | B4d4B2A2 | A4G2

@@@ Tune index: 9930
